!!!COM: Haydn, Franz Joseph
!!!OTL: String Quartet in B Minor
!!!OPS: Opus 33
!!!ONM: No. 1
!!!OMD: Andante
!!!OMV: 3
!!!SCT: H III:37
!!!SCA: Thematisch-bibliographisches Werkevererzeichnis (A. van Hoboken)
!!!YOR: Trautwein Edition
!!!ENC: Frances Bennion
!!!CDT: 1732/3/31/-1809/5/31/
!!!CNT: Oesterreich
!!!YEC: Copyright (c) 1994, 2000 Center for Computer Assisted Research in the Humanities
!!!YEM: Rights to all derivative editions reserved.
!!!YEM: Refer to licensing agreement for further details.
!!!YEN: United States of America
**kern	**kern	**kern	**kern
*k[f#c#]	*k[f#c#]	*k[f#c#]	*k[f#c#]
*D:	*D:	*D:	*D:
*clefF4	*clefC3	*clefG	*clefG
*M6/8	*M6/8	*M6/8	*M6/8
2r	2r	2r	2r
8r	8r	8r	8r
8r	8r	8r	8d
=1	=1	=1	=1
8D	8d	8f#	8f#
4r	4r	4r	8a
.	.	.	8dd
8D	8d	8f#	8ff#
4r	4r	4r	8aa
.	.	.	8ddd
=2	=2	=2	=2
2A	2c#	2g	8..aa
.	.	.	32bb
.	.	.	16.gg
.	.	.	32bb
.	.	.	8ee
4r	4r	4r	8r
.	.	.	8c#
=3	=3	=3	=3
8A	8c#	8g	8e
4r	4r	4r	8g
.	.	.	8cc#
8A	8c#	8g	8ee
4r	4r	4r	8gg
.	.	.	8eee
=4	=4	=4	=4
2D	2D	2a	8..gg
.	.	.	32aa
.	.	.	16.ff#
.	.	.	32aa
.	.	.	8dd
4r	8r	8r	8r
.	8f#	8a	8dd
=5	=5	=5	=5
4r	8g	8b	8ee
.	8f#	8a	8dd
8f#	8d	8a	8aa
4e	4g	4cc#	8.aa
.	.	.	32bb
.	.	.	32gg
8d	8a	8dd	8ff#
=6	=6	=6	=6
4r	8g	8b	8ee
.	8f#	8a	8dd
8f#	8d	8a	8aa
4e	4g	4cc#	8.aa
.	.	.	32bb
.	.	.	32gg
8d	8a	8dd	8ff#
=7	=7	=7	=7
4r	8g	8b	8ee
.	8f#	8a	8dd
8c#	8e	8a	8ee
4d	4d	4a	8.ff#
.	.	.	16bb
8B	8e	8dd	8gg#
=8	=8	=8	=8
8A	8e	8cc#	8aa
8A	8e	8cc#	8ccc#
8A	8e	8cc#	8eee
8A	8e	8cc#	8aa
8r	4r	4r	4r
8DD	.	.	.
=9	=9	=9	=9
8FF#	8r	8r	8r
8AA	8a	8dd	8ff#
8D	8a	8dd	8ff#
8F#	8a	8dd	8ff#
8A	8a	8dd	8ff#
8d	8a	8dd	8ff#
=10	=10	=10	=10
8..e	4a	4cc#	8..gg
32f#	.	.	32aa
16.d	8a	8dd	16.ff#
32e	.	.	32gg
8c#	8a	8ee	8ee
8r	4r	4r	4r
8CC#	.	.	.
=11	=11	=11	=11
8EE	8r	8r	8r
8GG	8a	8ee	8gg
8C#	8a	8ee	8gg
8E	8a	8ee	8gg
8G	8a	8ee	8gg
8c#	8a	8ee	8gg
=12	=12	=12	=12
8..d	4a	4dd	8..ff#
32f#	.	.	32aa
16.e	8a	8cc#	16.gg
32g	.	.	32bb
8f#	8a	8dd	8aa
4r	8r	8r	8r
.	8f#	8a	8dd
=13	=13	=13	=13
4r	8g	8b-	8cc#
.	8f#	8a	8dd
8f#	8d	8a	8.aa
4e	4g	4cc#	.
.	.	.	16aa#
.	.	.	16bb
.	.	.	16gg
8d	8a	8dd	8ff#
=14	=14	=14	=14
4r	8g	8b	8ee
.	8f#	8a	8dd
8d	8f#	[2aa	8.aa
4c#	8g	.	.
.	.	.	16ccc#
.	8e	.	16eee
.	.	.	16ggg
8d	8d	.	[8fff#
=15	=15	=15	=15
4.G	4.G	8aa]	8fff#]
.	.	8gg	8eee
.	.	4gg	4eee
4.G#	4.G#	.	.
.	.	8ff#	8ddd
.	.	[8ff#	[8ddd
=16	=16	=16	=16
4A	4A	16ff#]	16ddd]
.	.	16ee	16ccc#
.	.	16dd	16bb
.	.	16cc#	16aa
8AA	8A	8cc#	8aa
8AA	8A	8cc#	8aa
4r	8r	8r	4r
.	8c#	8A	.
=17	=17	=17	=17
4AA	8e	8c#	[2.ee
.	8c#	8e	.
8r	8a	8cc#	.
4AA	8cc#	8ee	.
.	8a	8cc#	.
8r	8A	8c#	.
=18	=18	=18	=18
4E	8G#	8B	2.ee_
.	8B	8d	.
8r	8g#	8b	.
4E	8b	8dd	.
.	8g#	8b	.
8r	8d	8g#	.
=19	=19	=19	=19
8AA	8c#	8a	8ee]
8AA	8c#	8e	8aa
8AA	8c#	8e	8aa
8AA	8c#	8e	4aa
8AA	8c#	8e	.
8AA	8c#	8e	8gg#
=20	=20	=20	=20
8AA	8d	8f#	8ff#
8AA	8d	8f#	8ff#
8AA	8d	8f#	8ff#
8AA	8d	8f#	8.ff#
8AA	8d	8f#	.
.	.	.	32gg#
.	.	.	32aa
8AA	8d	8f#	32bb
.	.	.	32ccc#
.	.	.	32ddd
.	.	.	32eee
=21	=21	=21	=21
8AA	4.d	4.f#	8fff#
8AA	.	.	8eee
8AA	.	.	8ddd
8AA	4.B	4.g#	8ddd
8AA	.	.	8ccc#
8AA	.	.	8ddd
=22	=22	=22	=22
8AA	8c#	8a	8ccc#
8AA	8e	8a	8ccc#
8AA	8e	8a	8ccc#
8AA	8e	8a	4ccc#
8AA	8e	8a	.
8AA	8e	8a	8eee
=23	=23	=23	=23
8F#	[2.B	2.a	8ddd#
8F#	.	.	8ddd#
8F#	.	.	8ddd#
8F#	.	.	16ddd#
.	.	.	16fff#
8F#	.	.	16aaa
.	.	.	16fff#
8F#	.	.	16ddd#
.	.	.	16fff#
=24	=24	=24	=24
4E	4B]	4g#	8eee
.	.	.	8ee
2r	2r	2r	8ee
.	.	.	8ee
.	.	.	8ee
.	.	.	8ee
=25	=25	=25	=25
2r	2r	8dd	8ee
.	.	8dd	8ee
.	.	8dd	8ee
.	.	8dd	8ee
8r	8r	8dd	8ee
8G#	8g#	8dd	8ee
=26	=26	=26	=26
4A#	4a#	8dd	8ee
.	.	8dd	8ee
8B	8b	8dd	8ee
8E	8e	8dd	8ee
8r	8r	8dd	8ee
8G#	8g#	8dd	8ee
=27	=27	=27	=27
4A#	4a#	8dd	8ee
.	.	8dd	8ee
8B	8b	8dd	8ee
8E	8e	8dd	8ee
8r	8r	8dd	8ee
8G#	8g#	8dd	8ee
=28	=28	=28	=28
4A#	4a#	8dd	8ee
.	.	8dd	8ee
8B	8b	8dd	8ee
8E	8e	8dd	8ee
8F	8f	8dd	8ee
8F#	8f#	8dd	8ee
=29	=29	=29	=29
8G	8g	8dd	8ee
8G#	8g#	8dd	8ee
8A	8a	8cc#	8ee
8D	8f#	8b	8dd
8E	8e	8a	8cc#
8E	8e	8g#	8b
=30	=30	=30	=30
4A	8A	4a	4a
.	8e	.	.
2r	8e	2r	2r
.	8e	.	.
.	8e	.	.
.	8e	.	.
=31	=31	=31	=31
8d	8e	2r	2r
8d	8e	.	.
8d	8e	.	.
8d	8e	.	.
8d	8e	8r	8r
8d	8e	8g#	8gg#
=32	=32	=32	=32
8d	8e	4a#	4aa#
8d	8e	.	.
8d	8e	8b	8bb
8d	8e	8e	8ee
8d	8e	8r	8r
8d	8e	8g#	8gg#
=33	=33	=33	=33
8d	8e	4a#	4aa#
8d	8e	.	.
8d	8e	8b	8bb
8d	8e	8e	8ee
8d	8e	8r	8r
8d	8e	8g#	8gg#
=34	=34	=34	=34
8d	8e	4a#	4aa#
8d	8e	.	.
8d	8e	8b	8bb
8d	8e	8e	8ee
8d	8e	8f	8ff
8d	8e	8f#	8ff#
=35	=35	=35	=35
8d	8e	8g	8gg
8d	8e	8g#	8gg#
8c#	8e	8a	8aa
8d	8f#	8b	8dd
8e	8e	8a	8cc#
8E	8d	8g#	8b
=36	=36	=36	=36
2.F#	4.d	4.g#	4.b
.	8e	8g	4.a#
.	8d	8f#	.
.	8c#	8e	.
=37	=37	=37	=37
8D	8d	8f#	8b
8C#	8e	8e	8cc#
8BB	8f#	8d	8dd
4.E	4e	8.c#	8.a
.	.	16d	16b
.	8d	8B	8g#
=38	=38	=38	=38
[2.AA	4c#	4A	8a
.	.	.	8a
.	8C#	2r	8g#
.	4D	.	4f#
.	8E	.	8e
=39	=39	=39	=39
2.AA]	4F#	4.a	4d
.	8E	.	8c#
.	8D	8g#	8B
.	8C#	8a	8A
.	8D	8b	8G#
=40	=40	=40	=40
8AA	8C#	8a	8A
8AA	8C#	8e	8A
8AA	8C#	8e	8A
8AA	8C#	8e	8A
4r	4r	8r	8r
.	.	8r	8A
=41	=41	=41	=41
8F#	16F#	16A	8c#
.	16A	16c#	.
8F#	16F#	16A	8f#
.	16A	16c#	.
8F#	16F#	16A	8a
.	16A	16c#	.
8F#	16F#	16A	8cc#
.	16A	16c#	.
8F#	16F#	16A	8ff#
.	16A	16c#	.
8F#	16F#	16A	8aa
.	16A	16c#	.
=42	=42	=42	=42
8G#	16G#	16B	8ff#
.	16B	16c#	.
8G#	16G#	16B	16.ee#
.	16B	16c#	.
.	.	.	32ff#
8G#	16G#	16B	16.gg#
.	16B	16c#	.
.	.	.	32aa
8G#	16G#	16B	8bb
.	16B	16c#	.
8G#	16G#	16B	8r
.	16B	16c#	.
8G#	16G#	16B	8c#
.	16B	16c#	.
=43	=43	=43	=43
8E#	16G#	16B	8e#
.	16B	16c#	.
8E#	16G#	16B	8g#
.	16B	16c#	.
8E#	16G#	16B	8cc#
.	16B	16c#	.
8E#	16G#	16B	8ee#
.	16B	16c#	.
8E#	16G#	16B	8gg#
.	16B	16c#	.
8E#	16G#	16B	8bb
.	16B	16c#	.
=44	=44	=44	=44
8F#	4A	8..c#	8..aa
8F#	.	.	.
.	.	32d	32bb
8G#	8B	16.B	16.gg#
.	.	32c#	32aa
8A	8c#	8A	8ff#
4r	4r	4r	8r
.	.	.	8cc#
=45	=45	=45	=45
8f#	8a	2r	8..dd
8f#	8a	.	.
.	.	.	32ee
8f#	8a	.	16.cc#
.	.	.	32ee
8f#	8a	.	8dd
8f#	8a	8r	8ff#
8f#	8a	8f#	8aa
=46	=46	=46	=46
8f#	8g#	8..g#	4.cc#
8f#	2r	.	.
.	.	32a#	.
8f#	.	16.f##	.
.	.	32a#	.
8f#	.	8g#	8b#
8f#	.	8b#	8r
8f#	8r	8dd#	8b#
=47	=47	=47	=47
8e	8g#	8cc#	8..cc#
8e	8g#	2r	.
.	.	.	32dd#
8e	8g#	.	16.b#
.	.	.	32dd#
8e	8g	.	8cc#
8e	8g	.	8ee
8e	8g	8e	8gg
=48	=48	=48	=48
8e	8f#	8..f#	4.b
8e	2r	.	.
.	.	32g#	.
8e	.	16.e#	.
.	.	32g#	.
8e	.	8f#	8a#
8e	.	8a#	8r
8e	8r	8cc#	8a#
=49	=49	=49	=49
8d	8f#	8b	8..b
8d	8f#	2r	.
.	.	.	32cc#
8d	8f#	.	16.a#
.	.	.	32cc#
8d	8f#	.	8b
8d	8f#	.	8dd
8d	8f#	8r	8ff#
=50	=50	=50	=50
8d	8f#	8a	8..cc
8d	8f#	8a	.
.	.	.	32dd
8d	8f#	8a	16.b
.	.	.	32dd
8d	8f#	8a	8cc
8d	8f#	8a	8ff#
8d	8f#	8a	8aa
=51	=51	=51	=51
8c#	8f#	8a	8..cc#
8c#	8f#	8a	.
.	.	.	32dd#
8c#	8f#	8a	16.b#
.	.	.	32dd#
8c#	8f#	8a	8cc#
8c#	8f#	8a	8ff#
8c#	8f#	8a	8aa
=52	=52	=52	=52
4c#	4e#	4g#	8ccc#
.	.	.	8gg#
2r	2r	8r	8ee#
.	.	8cc#	8cc#
.	.	8g#	4r
.	.	8e#	.
=53	=53	=53	=53
4.r	8c#	8c#	2.r
.	8G#	2r	.
.	8E#	.	.
8C#	8C#	.	.
8GG#	4r	.	.
8EE#	.	8r	.
=54	=54	=54	=54
[2CC#	2r	2r	2r
8CC#]	8r	8r	8r
8DD	8D	8d	8d
=55	=55	=55	=55
8FF#	8F#	8f#	8f#
8AA	8A	8a	8a
8D	8d	8dd	8dd
8F#	8f#	8ff#	16ff#
.	.	.	16gg
4r	4r	4r	16aa
.	.	.	16bb
.	.	.	16ccc#
.	.	.	16ddd
=56	=56	=56	=56
2A	2c#	2g	8..aa
.	.	.	32bb
.	.	.	16.gg
.	.	.	32bb
.	.	.	8ee
4r	4r	4r	8r
.	.	.	8ggg
=57	=57	=57	=57
8A	8c#	8g	8eee
4r	4r	4r	8ccc#
.	.	.	8aa
8A	8c#	8g	8gg
4r	4r	4r	8ee
.	.	.	8cc#
=58	=58	=58	=58
2D	2D	2a	8..g
.	.	.	32a
.	.	.	16.f#
.	.	.	32a
.	.	.	8d
4r	8r	8r	8r
.	8f#	8a	8dd
=59	=59	=59	=59
4r	8g	8b	8ee
.	8f#	8a	8dd
8f#	8d	8a	8aa
4e	4g	4cc#	8.aa
.	.	.	32bb
.	.	.	32gg
8d	8a	8dd	8ff#
=60	=60	=60	=60
4r	8g	8b	8ee
.	8f#	8a	8dd
8f#	8d	8a	8aa
4e	4g	4cc#	8.aa
.	.	.	32bb
.	.	.	32gg
8d	8a	8dd	8ff#
=61	=61	=61	=61
2.r	4g	4b	8.ee
.	.	.	32ff#
.	.	.	32ee
.	8f#	8a	8dd
.	8e	8g	8cc#
.	8c#	8e	8gg
.	8d	8d	8ff#
=62	=62	=62	=62
8AA	16c#	8c#	8ee
.	16e	.	.
8C#	16c#	16g	2r
.	16e	16a	.
8E	16c#	16g	.
.	16e	16a	.
8G	16c#	16g	.
.	16e	16a	.
8c#	16c#	16g	.
.	16e	16a	.
8e	16c#	16g	8r
.	16e	16a	.
=63	=63	=63	=63
4g	16c#	16g	[4aa
.	16e	16a	.
.	16c#	16g	.
.	16e	16a	.
2r	16c#	16g	32aa]
.	.	.	32bb
.	16e	16a	32ccc#
.	.	.	32ddd
.	16c#	16g	8eee
.	16e	16a	.
.	16c#	16g	4r
.	16e	16a	.
.	16c#	16g	.
.	16e	16a	.
=64	=64	=64	=64
8AA	16d	16f#	2.r
.	16f#	16a	.
8D	16d	16f#	.
.	16f#	16a	.
8F#	16d	16f#	.
.	16f#	16a	.
8A	16d	16f#	.
.	16f#	16a	.
8d	16d	16f#	.
.	16f#	16a	.
8f#	16d	16f#	.
.	16f#	16a	.
=65	=65	=65	=65
4a	16d	16f#	4aa
.	16f#	16a	.
.	16d	16f#	.
.	16f#	16a	.
2r	16d	16f#	32bb
.	.	.	32ccc#
.	16f#	16a	32ddd
.	.	.	32eee
.	16d	16f#	8fff#
.	16f#	16a	.
.	16d	16f#	4r
.	16f#	16a	.
.	16d	16f#	.
.	16f#	16a	.
=66	=66	=66	=66
8AA	16c#	16g	2.r
.	16e	16a	.
8C#	16c#	16g	.
.	16e	16a	.
8E	16c#	16g	.
.	16e	16a	.
8G	16c#	16g	.
.	16e	16a	.
8c#	16c#	16g	.
.	16e	16a	.
8e	16c#	16g	.
.	16e	16a	.
=67	=67	=67	=67
4g	16c#	16g	8..aa
.	16e	16a	.
.	16c#	16g	.
.	16e	16a	.
.	.	.	32bb
2r	16c#	16g	32ccc#
.	.	.	32ddd
.	16e	16a	32eee
.	.	.	32fff#
.	16c#	16g	8ggg
.	16e	16a	.
.	16c#	16g	8eee
.	16e	16a	.
.	16c#	16g	8ccc#
.	16e	16a	.
=68	=68	=68	=68
8F#	8d	8a 8f#	4..ddd
8F#	8A	8d	.
8F#	8A	8d	.
8F#	8A	8d	.
.	.	.	16fff#
8F#	8A	8d	16eee
.	.	.	16ddd
8F#	8A	8d	16ccc#
.	.	.	16ddd
=69	=69	=69	=69
8G	8G	8d	16ccc#
.	.	.	16bb
8G	8G	8d	8bb
8G	8G	8d	8bb
8G	8G	8d	4bb
8G	8G	8d	.
8G	8G	8d	8bb-
=70	=70	=70	=70
8A	8A	8c#	4..aa
8A	8e	8c#	.
8A	8e	8c#	.
8A	8e	8c#	.
.	.	.	16ccc#
8A	8e	8c#	16eee
.	.	.	16ccc#
8A	8e	8c#	16aa
.	.	.	16gg
=71	=71	=71	=71
8B	8d	8d	8ff#
8B	8d	8d	8ff#
8B	8d	8d	8ff#
8B	8d	8d	4ff#
8B	8d	8d	.
8B	8d	8d	8dd
=72	=72	=72	=72
8F#	8A	8d	16dd
.	.	.	16ddd
8F#	8A	8d	16ccc#
.	.	.	16ddd
8F#	8A	8d	16ccc
.	.	.	16aa#
8G	8G	8d	16bb
.	.	.	16ff#
4r	4r	4r	16gg
.	.	.	16gg#
.	.	.	16aa
.	.	.	16aa#
=73	=73	=73	=73
8G	8B	8d	16bb
.	.	.	16ddd
8G	8B	8d	16ccc#
.	.	.	16ddd
8G	8B	8d	16bb
.	.	.	16gg#
8F#	8A	8d	16aa
.	.	.	16cc#
4r	4r	4r	16dd
.	.	.	16dd#
.	.	.	16ee
.	.	.	16ee#
=74	=74	=74	=74
8F#	8A	8d	16ff#
.	.	.	16ddd
8F#	8A	8d	16ccc#
.	.	.	16ddd
8F#	8A	8d	16ccc
.	.	.	16aa#
8G	8G	8d	16bb
.	.	.	16gg
4r	4r	4r	16ff#
.	.	.	16ff
.	.	.	16ee
.	.	.	16ee-
=75	=75	=75	=75
8A	8d	8f#	4.dd
8A	8d	8f#	.
8A	8d	8f#	.
8AA	8c#	8g	4.ee
8AA	8c#	8g	.
8AA	8c#	8g	.
=76	=76	=76	=76
4D	4d	4f#	8dd
.	.	.	8a
2r	2r	2r	8a
.	.	.	8a
.	.	.	8a
.	.	.	8a
=77	=77	=77	=77
2r	2.r	8g	8a
.	.	8g	8a
.	.	8g	8a
.	.	8g	8a
8r	.	8g	8a
8c#	.	8g	8a
=78	=78	=78	=78
4d#	2.r	8g	8a
.	.	8g	8a
8e	.	8g	8a
8A	.	8g	8a
8r	.	8g	8a
8c#	.	8g	8a
=79	=79	=79	=79
4d#	2.r	8g	8a
.	.	8g	8a
8e	.	8g	8a
8A	.	8g	8a
8r	.	8g	8a
8c#	.	8g	8a
=80	=80	=80	=80
4d#	2.r	8g	8a
.	.	8g	8a
8e	.	8g	8a
8A	.	8g	8a
8B-	.	8g	8a
8B	.	8g	8a
=81	=81	=81	=81
8c	2.r	8g	8a
8c#	.	8g	8a
8d	.	8f#	8a
8G	.	8e	8g
8A	.	8d	8f#
8AA	.	8c#	8e
=82	=82	=82	=82
4D	8r	4d	4d
.	8A	.	.
2r	8A	2r	2r
.	8A	.	.
.	8A	.	.
.	8A	.	.
=83	=83	=83	=83
8G	8A	2r	2r
8G	8A	.	.
8G	8A	.	.
8G	8A	.	.
8G	8A	8r	8r
8G	8A	8c#	8cc#
=84	=84	=84	=84
8G	8A	4d#	4dd#
8G	8A	.	.
8G	8A	8e	8ee
8G	8A	8A	4a
8G	8A	8r	.
8G	8A	8c#	8cc#
=85	=85	=85	=85
8G	8A	4d#	4dd#
8G	8A	.	.
8G	8A	8e	8ee
8G	8A	8A	8a
8G	8A	8r	8r
8G	8A	8c#	8cc#
=86	=86	=86	=86
8G	8A	4d#	4dd#
8G	8A	.	.
8G	8A	8e	8ee
8G	8A	8A	8a
8G	8A	8B-	8b-
8G	8A	8B	8b
=87	=87	=87	=87
8G	8A	8c	8cc
8G	8A	8c#	8cc#
8F#	8A	8d	8dd
8G	8B	8e	8g
8A	8A	8d	8f#
8AA	8G	8c#	8e
=88	=88	=88	=88
2.BB	4.G	4.c#	4.e
.	8A	8c	4.d#
.	8G	8B	.
.	8F#	8A	.
=89	=89	=89	=89
8GG	8G	8B	8e
8FF#	8A	8A	8f#
8EE	8B	8G	8g
4.AA	8.F#	4.A	8.d
.	16G	.	16e
.	8E	.	8c#
=90	=90	=90	=90
[2.DD	4.F#	4A	8d
.	.	.	8dd
.	.	2r	8cc#
.	4G	.	4b
.	8A	.	8a
=91	=91	=91	=91
2.DD]	4B	4.d	4g
.	8A	.	8f#
.	8G	8e	8e
.	8F#	8f#	8d
.	8E	8g	8c#
=92	=92	=92	=92
8DD	8F#	8f#	8d
8DD	8F#	8A	8d
8DD	8F#	8A	8d
8DD	8F#	8A	8d
4r	4r	4r	4r
==	==	==	==
*-	*-	*-	*-
!!!RWG1: This file contains only pitch and duration data.
!!!RWG2: Transposing instruments are not transposed.
!!!RWG3: Spines may have incompatible meters.
!!!RWG4: Durations of rests and tied notes may be interpreted.
!!!RWG: Key is interpreted using the Humdrum key tool.
!!!GTL: 6 Quators ("Jungfernquartette")
!!!AFT: stage1
!!!END: 1997/04/15
!!!KEY: 3028379117
!!!EMD: Converted from MuseData to Humdrum Dec 16, 2000, by Andreas Kornstaedt using muse2kern.
!!!EMD: Manual editing by Craig Sapp, Nov 2001
